X:13
T:Black & Grey (Peake)
%%VWML:SBG-1-2-373-0
F:http://www.vwml.org/record/SBG/1/2/373
Z:Original Sibelius transcriptions by M. & S. Graebe
M:4/4
I:linebreak $
K:C
V:1 treble nm="P1"
V:1
 G | G/B/ d B G | E E D D | D G/A/ B G | c A B :|$ G | B B/B/ A G | B d g d | e e d B | %9
 A/G/A/B/ G x | %10
T:Black & Grey (Kidson)
F:http://www.vwml.org/record/SBG/1/2/373
Z:Original Sibelius transcriptions by M. & S. Graebe
M:4/4
I:linebreak $
K:G
V:1 treble nm="P1"
V:1
 d/c/ | B A G d/c/ | B A G d | g/ g/ g/ g/ e f/ g/ | f e d3/2 d/ |$ e3/2 f/ g e | d g d A/G/ | %7
 d d e d/ c/ | B A G x | %9

